X:2983
T:Jenny In The Cotton Patch
O:england
C:Traditional
S:Clyde Davenport
N:Transcribed into ABC format by Dan Mozell from
N:Graphic file of standard notation at Jeff Titon's web site.
N:(http://www.stg.brown.edu/projects/davenport/
N:JEFF_TITON.html)
K:A
M:2/2
L:1/8
"Tune AEAE" (A2|:A)Bcd e2 d2 | (Bc)dd e2 e2 |
(eB e2c2) ce A2 AB | AFEF E A2 B | AFEF E(AA)B |
M:2/4
A4 (A4:|
M:2/2
|:A)BcA d2 ff | edef {f}=g3 f | edef abaf |
[1 eaab a2 A2 :|[2 eaab a2 ||
